<?xml version="1.0" encoding="UTF-8"?>
<map version="1.10" tiledversion="1.12.1" orientation="orthogonal" renderorder="right-down" width="80" height="16" tilewidth="18" tileheight="18" infinite="1" nextlayerid="9" nextobjectid="226">
 <editorsettings>
  <export target="platformer-level-1.tmj" format="json"/>
 </editorsettings>
 <tileset firstgid="1" name="industry_tilemap" tilewidth="18" tileheight="18" tilecount="112" columns="16">
  <image source="../../../../../Downloads/PlatformerKennyAssets/Industry/Tilemap/tilemap_packed.png" width="288" height="126"/>
 </tileset>
 <tileset firstgid="113" name="pixelplat_tilemap" tilewidth="18" tileheight="18" tilecount="180" columns="20">
  <image source="pixel_tilemap_packed.png" width="360" height="162"/>
 </tileset>
 <layer id="6" name="Parallax2" width="80" height="16">
  <data encoding="csv">
   <chunk x="0" y="0" width="16" height="16">
150,151,151,151,151,151,151,152,0,0,0,0,0,0,0,0,
150,151,151,151,151,151,151,152,0,0,0,0,0,0,0,0,
170,151,151,151,151,151,151,152,0,0,0,0,0,0,0,0,
0,150,151,151,151,151,151,152,0,0,0,0,0,0,0,0,
0,150,151,151,151,151,151,152,0,0,0,0,0,0,0,0,
0,150,151,151,151,171,171,172,0,0,0,0,0,0,0,0,
0,150,151,151,152,0,0,0,0,0,0,0,0,0,0,0,
0,150,151,151,152,0,0,0,0,0,0,0,0,0,0,0,
0,150,151,151,152,0,0,0,0,149,0,0,0,0,0,0,
0,170,151,151,152,0,0,0,0,189,0,0,0,0,0,0,
0,0,150,151,152,0,0,0,0,0,0,0,0,0,0,0,
0,0,150,151,151,132,0,0,0,0,0,0,0,0,0,0,
0,0,150,151,151,152,0,0,0,0,0,0,0,0,0,0,
0,0,150,151,151,152,0,0,0,0,0,0,0,0,0,0,
0,0,150,151,151,152,0,0,0,0,0,0,0,0,0,0,
0,0,150,151,151,152,0,0,0,0,0,0,0,0,0,0
</chunk>
   <chunk x="16" y="0" width="16" height="16">
0,150,151,151,151,151,152,0,0,0,0,0,0,0,0,0,
0,150,151,151,151,151,152,0,0,0,0,0,0,149,0,0,
0,170,151,151,151,151,152,0,0,0,0,0,0,169,0,0,
0,0,150,151,151,151,152,0,0,0,0,0,0,169,0,0,
0,0,150,151,151,151,172,0,0,0,0,0,0,169,0,0,
0,0,150,151,151,152,0,0,0,0,0,0,0,189,0,0,
130,131,151,151,151,152,0,0,0,129,0,0,0,0,0,0,
150,151,151,151,151,152,0,0,0,0,0,0,0,0,0,0,
150,151,151,151,151,152,0,0,0,0,0,0,0,0,0,0,
150,151,151,151,151,152,0,0,0,0,0,129,0,0,0,0,
150,151,151,151,151,151,131,132,0,0,0,0,0,0,0,0,
150,151,151,151,151,151,151,152,0,0,0,0,0,0,0,130,
150,151,151,151,151,151,151,152,0,0,0,0,0,0,0,150,
150,151,151,151,151,151,151,152,0,0,0,0,0,0,0,150,
150,151,151,151,151,151,151,152,0,0,0,0,0,0,0,150,
150,151,151,151,151,151,151,152,0,0,0,0,0,0,0,150
</chunk>
   <chunk x="32" y="0" width="16" height="16">
0,0,150,151,152,0,0,0,0,0,0,0,0,0,0,0,
0,0,150,151,152,0,0,0,0,0,0,0,0,0,0,0,
0,0,150,151,152,0,0,0,0,0,0,0,0,0,0,0,
0,0,150,151,152,0,0,0,0,0,0,0,0,0,0,0,
0,0,150,151,152,0,0,0,0,0,0,0,0,0,0,0,
0,130,151,151,152,0,0,0,0,0,0,0,0,0,0,0,
0,150,151,151,152,0,0,0,0,0,0,0,0,0,0,0,
0,150,151,151,152,0,0,0,0,0,0,0,0,0,0,0,
0,150,151,151,152,0,0,0,0,0,0,0,0,0,0,0,
0,150,151,151,152,0,0,0,0,0,0,0,0,0,0,0,
0,150,151,151,152,0,0,0,0,0,0,0,0,0,0,0,
131,151,151,151,151,132,0,0,0,0,0,0,0,0,0,0,
151,151,151,151,151,152,0,0,0,0,0,0,0,0,0,0,
151,151,151,151,151,152,0,0,0,0,0,0,0,0,0,0,
151,151,151,151,151,152,0,0,0,0,0,0,0,0,0,0,
151,151,151,151,151,152,0,0,0,0,0,0,0,0,0,0
</chunk>
   <chunk x="48" y="0" width="16" height="16">
150,151,151,151,151,151,152,0,0,0,0,0,0,0,0,0,
150,151,151,151,151,151,152,0,0,0,0,0,0,0,0,0,
150,151,151,151,151,151,152,0,0,0,0,0,0,0,0,0,
150,151,151,151,151,151,152,0,0,0,0,0,0,0,0,0,
150,151,151,151,151,151,152,0,0,0,0,0,0,0,0,0,
170,151,151,151,151,151,152,0,0,0,0,0,0,0,0,0,
0,150,151,151,151,151,152,0,0,0,0,0,0,0,0,0,
0,150,151,151,151,151,152,0,0,0,0,0,0,0,0,0,
0,150,151,151,151,151,152,0,0,0,0,0,0,0,0,0,
0,150,151,151,151,151,172,0,0,0,0,0,0,0,0,0,
0,150,151,151,151,152,0,0,0,0,0,0,0,0,0,0,
0,150,151,151,151,152,0,0,0,0,0,0,0,0,0,0,
0,150,151,151,151,152,0,0,0,0,0,0,0,0,0,0,
0,150,151,151,151,152,0,0,0,0,0,0,0,0,0,0,
0,150,151,151,151,152,0,0,0,0,0,0,0,0,0,0,
0,150,151,151,151,152,0,0,0,0,0,0,0,0,0,0
</chunk>
  </data>
 </layer>
 <layer id="5" name="Parallax1" width="80" height="16">
  <data encoding="csv">
   <chunk x="0" y="0" width="16" height="16">
0,0,0,0,0,0,0,0,31,0,0,0,0,0,0,0,
0,0,0,0,0,0,0,0,31,0,0,0,0,0,0,0,
0,0,0,0,0,0,0,0,31,0,0,0,0,0,0,0,
0,0,0,0,0,0,0,0,31,0,0,0,0,0,0,0,
0,0,0,0,0,0,0,0,31,0,0,0,0,0,0,0,
0,0,0,0,0,0,0,0,31,0,0,0,0,0,0,0,
0,0,0,0,0,0,0,0,31,0,0,0,0,0,0,0,
0,0,0,0,0,0,0,0,31,0,0,0,0,0,0,0,
0,0,0,0,0,0,0,0,31,0,0,0,0,0,0,0,
0,0,0,0,0,0,0,0,31,0,0,0,0,0,0,0,
0,0,0,0,0,0,0,0,31,0,0,0,0,0,0,0,
0,0,0,0,0,0,0,0,31,0,0,0,0,0,0,0,
0,0,0,0,0,0,0,0,31,0,0,0,0,0,0,0,
0,0,0,0,0,0,0,0,31,0,0,0,0,0,0,0,
0,0,0,0,0,0,0,0,31,0,0,0,0,0,0,0,
0,0,0,0,0,0,0,0,31,0,0,0,0,0,0,0
</chunk>
   <chunk x="16" y="0" width="16" height="16">
0,0,0,31,0,0,0,0,0,0,0,0,0,0,0,0,
0,0,0,31,0,0,0,0,0,0,0,0,0,0,0,0,
0,0,0,31,0,0,0,0,0,0,0,0,0,0,0,0,
0,0,0,31,0,0,0,0,0,0,0,0,0,0,0,0,
0,0,0,31,0,0,0,0,0,0,0,0,0,0,0,0,
0,0,0,31,0,0,0,0,0,0,0,0,0,0,0,0,
0,0,0,31,0,0,0,0,0,0,0,0,0,0,0,0,
0,0,0,31,0,0,0,0,0,0,0,0,0,0,0,0,
0,0,0,31,0,0,0,0,0,0,0,0,0,0,0,0,
0,0,0,31,0,0,0,0,0,0,0,0,0,0,0,0,
0,0,0,31,0,0,0,0,0,0,0,0,0,0,0,0,
0,0,0,31,0,0,0,0,0,0,0,0,0,0,0,0,
0,0,0,31,0,0,0,0,0,0,0,0,0,0,0,0,
0,0,0,31,0,0,0,0,0,0,0,0,0,0,0,0,
0,0,0,31,0,0,0,0,0,0,0,0,0,0,0,0,
0,0,0,31,0,0,0,0,0,0,0,0,0,0,0,0
</chunk>
   <chunk x="32" y="0" width="16" height="16">
0,0,0,31,0,0,0,0,0,0,0,0,0,31,0,0,
0,0,0,31,0,0,0,0,0,0,0,0,0,31,0,0,
0,0,0,31,0,0,0,0,0,0,0,0,0,31,0,0,
0,0,0,31,0,0,0,0,0,0,0,0,0,31,0,0,
0,0,0,31,0,0,0,0,0,0,0,0,0,31,0,0,
0,0,0,31,0,0,0,0,0,0,0,0,0,31,0,0,
0,0,0,31,0,0,0,0,0,0,0,0,0,31,0,0,
0,0,0,31,0,0,0,0,0,0,0,0,0,31,0,0,
0,0,0,31,0,0,0,0,0,0,0,0,0,31,0,0,
0,0,0,31,0,0,0,0,0,0,0,0,0,31,0,0,
0,0,0,31,0,0,0,0,0,0,0,0,0,31,0,0,
0,0,0,31,0,0,0,0,0,0,0,0,0,31,0,0,
0,0,0,31,0,0,0,0,0,0,0,0,0,31,0,0,
0,0,0,31,0,0,0,0,0,0,0,0,0,31,0,0,
0,0,0,31,0,0,0,0,0,0,0,0,0,31,0,0,
0,0,0,31,0,0,0,0,0,0,0,0,0,31,0,0
</chunk>
   <chunk x="48" y="0" width="16" height="16">
0,0,0,0,0,0,0,31,0,0,0,0,0,0,0,0,
0,0,0,0,0,0,0,31,0,0,0,0,0,0,0,0,
0,0,0,0,0,0,0,31,0,0,0,0,0,0,0,0,
0,0,0,0,0,0,0,31,0,0,0,0,0,0,0,0,
0,0,0,0,0,0,0,31,0,0,0,0,0,0,0,0,
0,0,0,0,0,0,0,31,0,0,0,0,0,0,0,0,
0,0,0,0,0,0,0,31,0,0,0,0,0,0,0,0,
0,0,0,0,0,0,0,31,0,0,0,0,0,0,0,0,
0,0,0,0,0,0,0,31,0,0,0,0,0,0,0,0,
0,0,0,0,0,0,0,31,0,0,0,0,0,0,0,0,
0,0,0,0,0,0,0,31,0,0,0,0,0,0,0,0,
0,0,0,0,0,0,0,31,0,0,0,0,0,0,0,0,
0,0,0,0,0,0,0,31,0,0,0,0,0,0,0,0,
0,0,0,0,0,0,0,31,0,0,0,0,0,0,0,0,
0,0,0,0,0,0,0,31,0,0,0,0,0,0,0,0,
0,0,0,0,0,0,0,31,0,0,0,0,0,0,0,0
</chunk>
  </data>
 </layer>
 <layer id="3" name="BackGround" width="80" height="16">
  <data encoding="csv">
   <chunk x="16" y="0" width="16" height="16">
0,0,0,0,0,55,0,55,0,0,0,0,0,0,0,0,
0,0,0,0,0,55,0,55,0,0,0,0,0,0,0,0,
0,0,0,0,0,55,0,55,0,0,0,0,0,0,0,0,
0,0,0,0,0,55,0,55,0,0,0,0,0,0,0,0,
0,0,0,0,0,55,0,55,0,0,0,0,0,0,0,0,
0,0,0,0,0,55,0,55,0,0,0,0,0,0,0,0,
0,0,0,0,0,55,0,55,0,0,0,0,0,0,0,0,
0,0,0,0,0,55,0,55,0,0,0,0,0,0,0,0,
0,0,0,0,0,55,0,55,0,0,0,0,0,0,0,0,
0,0,0,0,0,55,0,55,0,0,0,0,0,0,0,0,
0,0,0,0,0,55,0,55,0,0,0,0,0,0,0,0,
0,0,0,0,0,55,0,55,0,0,0,0,0,0,0,0,
0,0,0,0,0,55,0,55,0,0,0,0,0,0,0,0,
0,0,0,0,0,55,0,55,0,0,0,0,0,0,0,0,
0,0,0,0,0,55,0,55,0,0,0,0,0,74,0,74,
0,0,0,0,0,55,0,55,0,0,0,0,0,0,0,0
</chunk>
   <chunk x="32" y="0" width="16" height="16">
0,0,0,0,9,0,0,0,0,0,0,0,0,0,0,0,
0,0,0,0,25,0,0,0,0,0,0,0,0,0,0,0,
0,0,0,0,25,0,0,0,0,0,0,0,0,0,0,0,
0,0,0,0,25,0,0,0,0,0,0,0,0,0,0,0,
0,0,0,0,25,0,0,0,0,0,0,0,0,0,0,0,
0,0,0,0,25,0,0,0,0,0,0,0,0,0,0,0,
0,0,0,0,25,0,0,0,0,0,0,0,0,0,0,0,
0,0,0,0,25,0,0,0,0,0,0,0,0,0,0,0,
0,0,0,0,41,0,0,0,0,0,0,0,0,0,0,0,
0,0,0,0,0,0,0,0,0,0,0,0,0,0,0,0,
0,0,0,0,0,0,0,0,0,0,0,0,0,0,0,0,
0,0,0,0,0,0,0,0,0,0,0,0,0,0,0,0,
0,0,0,0,0,0,0,0,0,0,0,0,0,0,0,0,
0,0,0,0,0,0,0,0,0,0,0,0,0,0,0,0,
0,0,0,0,0,0,0,0,0,0,0,0,0,0,0,0,
0,0,0,0,0,0,0,0,0,0,0,0,0,0,0,0
</chunk>
  </data>
 </layer>
 <objectgroup id="2" name="Objects">
  <object id="43" name="spawn" gid="224" x="54" y="234" width="18" height="18"/>
  <object id="110" name="spring" gid="220" x="18" y="216" width="18" height="18" rotation="90"/>
  <object id="111" name="spring" gid="220" x="324" y="198" width="18" height="18" rotation="90"/>
  <object id="112" name="spring" gid="220" x="108" y="234" width="18" height="18" rotation="-90"/>
  <object id="126" name="super_spike" gid="182" x="180" y="198" width="18" height="18" rotation="-90"/>
  <object id="127" name="super_spike" gid="182" x="180" y="216" width="18" height="18" rotation="-90"/>
  <object id="128" name="super_spike" gid="182" x="180" y="234" width="18" height="18" rotation="-90"/>
  <object id="129" name="super_spike" gid="182" x="180" y="252" width="18" height="18" rotation="-90"/>
  <object id="130" name="super_spike" gid="182" x="108" y="162" width="18" height="18" rotation="-180"/>
  <object id="131" name="super_spike" gid="182" x="90" y="162" width="18" height="18" rotation="-180"/>
  <object id="132" name="super_spike" gid="182" x="72" y="162" width="18" height="18" rotation="-180"/>
  <object id="133" name="super_spike" gid="182" x="54" y="162" width="18" height="18" rotation="-180"/>
  <object id="134" name="super_spike" gid="182" x="36" y="162" width="18" height="18" rotation="-180"/>
  <object id="135" name="super_spike" gid="182" x="126" y="126" width="18" height="18" rotation="90"/>
  <object id="136" name="super_spike" gid="182" x="126" y="144" width="18" height="18" rotation="90"/>
  <object id="137" name="super_spike" gid="182" x="126" y="162" width="18" height="18" rotation="90"/>
  <object id="138" name="super_spike" gid="182" x="180" y="90" width="18" height="18" rotation="-90"/>
  <object id="139" name="super_spike" gid="182" x="180" y="108" width="18" height="18" rotation="-90"/>
  <object id="140" name="super_spike" gid="182" x="180" y="126" width="18" height="18" rotation="-90"/>
  <object id="141" name="super_spike" gid="182" x="126" y="18" width="18" height="18" rotation="90"/>
  <object id="142" name="super_spike" gid="182" x="126" y="36" width="18" height="18" rotation="90"/>
  <object id="143" name="super_spike" gid="182" x="126" y="54" width="18" height="18" rotation="90"/>
  <object id="144" name="super_spike" gid="182" x="180" y="72" width="18" height="18"/>
  <object id="145" name="super_spike" gid="182" x="199" y="72" width="18" height="18"/>
  <object id="146" name="super_spike" gid="182" x="270" y="18" width="18" height="18" rotation="-180"/>
  <object id="147" name="super_spike" gid="182" x="252" y="18" width="18" height="18" rotation="-180"/>
  <object id="148" name="super_spike" gid="182" x="234" y="18" width="18" height="18" rotation="-180"/>
  <object id="149" name="super_spike" gid="182" x="216" y="18" width="18" height="18" rotation="-180"/>
  <object id="150" name="super_spike" gid="182" x="198" y="18" width="18" height="18" rotation="-180"/>
  <object id="151" name="super_spike" gid="182" x="306" y="18" width="18" height="18" rotation="-180"/>
  <object id="152" name="super_spike" gid="182" x="288" y="18" width="18" height="18" rotation="-180"/>
  <object id="153" name="super_spike" gid="182" x="288" y="72" width="18" height="18"/>
  <object id="154" name="super_spike" gid="182" x="307" y="72" width="18" height="18"/>
  <object id="155" name="super_spike" gid="182" x="270" y="72" width="18" height="18"/>
  <object id="156" name="super_spike" gid="182" x="396" y="90" width="18" height="18"/>
  <object id="157" name="super_spike" gid="182" x="415" y="90" width="18" height="18"/>
  <object id="164" name="super_spike" gid="182" x="378" y="36" width="18" height="18" rotation="-180"/>
  <object id="165" name="super_spike" gid="182" x="414" y="36" width="18" height="18" rotation="-180"/>
  <object id="166" name="super_spike" gid="182" x="396" y="36" width="18" height="18" rotation="-180"/>
  <object id="167" name="super_spike" gid="182" x="450" y="36" width="18" height="18" rotation="-180"/>
  <object id="170" name="super_spike" gid="182" x="396" y="108" width="18" height="18" rotation="-180"/>
  <object id="171" name="super_spike" gid="182" x="450" y="108" width="18" height="18" rotation="-180"/>
  <object id="172" name="super_spike" gid="182" x="377" y="106" width="18" height="18" rotation="-180"/>
  <object id="173" name="super_spike" gid="182" x="414" y="162" width="18" height="18"/>
  <object id="174" name="super_spike" gid="182" x="433" y="162" width="18" height="18"/>
  <object id="175" name="super_spike" gid="182" x="396" y="162" width="18" height="18"/>
  <object id="176" name="super_spike" gid="182" x="378" y="162" width="18" height="18"/>
  <object id="177" name="super_spike" gid="182" x="396" y="180" width="18" height="18" rotation="-180"/>
  <object id="178" name="super_spike" gid="182" x="378" y="180" width="18" height="18" rotation="-180"/>
  <object id="179" name="super_spike" gid="182" x="432" y="180" width="18" height="18" rotation="-180"/>
  <object id="180" name="super_spike" gid="182" x="414" y="180" width="18" height="18" rotation="-180"/>
  <object id="185" name="super_spike" gid="182" x="486" y="234" width="18" height="18"/>
  <object id="186" name="super_spike" gid="182" x="505" y="234" width="18" height="18"/>
  <object id="194" name="super_spike" gid="182" x="576" y="180" width="18" height="18" rotation="-180"/>
  <object id="195" name="super_spike" gid="182" x="558" y="180" width="18" height="18" rotation="-180"/>
  <object id="196" name="super_spike" gid="182" x="540" y="180" width="18" height="18" rotation="-180"/>
  <object id="197" name="super_spike" gid="182" x="522" y="180" width="18" height="18" rotation="-180"/>
  <object id="198" name="super_spike" gid="182" x="504" y="180" width="18" height="18" rotation="-180"/>
  <object id="199" name="super_spike" gid="182" x="612" y="180" width="18" height="18" rotation="-180"/>
  <object id="200" name="super_spike" gid="182" x="594" y="180" width="18" height="18" rotation="-180"/>
  <object id="201" name="super_spike" gid="182" x="576" y="234" width="18" height="18"/>
  <object id="202" name="super_spike" gid="182" x="595" y="234" width="18" height="18"/>
  <object id="203" name="super_spike" gid="182" x="612" y="108" width="18" height="18" rotation="90"/>
  <object id="204" name="super_spike" gid="182" x="612" y="90" width="18" height="18" rotation="90"/>
  <object id="205" name="super_spike" gid="182" x="774" y="108" width="18" height="18" rotation="-180"/>
  <object id="206" name="super_spike" gid="182" x="756" y="108" width="18" height="18" rotation="-180"/>
  <object id="207" name="super_spike" gid="182" x="738" y="108" width="18" height="18" rotation="-180"/>
  <object id="208" name="super_spike" gid="182" x="720" y="108" width="18" height="18" rotation="-180"/>
  <object id="209" name="super_spike" gid="182" x="702" y="108" width="18" height="18" rotation="-180"/>
  <object id="210" name="super_spike" gid="182" x="810" y="108" width="18" height="18" rotation="-180"/>
  <object id="211" name="super_spike" gid="182" x="792" y="108" width="18" height="18" rotation="-180"/>
  <object id="212" name="super_spike" gid="182" x="684" y="144" width="18" height="18"/>
  <object id="213" name="super_spike" gid="182" x="360" y="108" width="18" height="18" rotation="-90"/>
  <object id="214" name="super_spike" gid="182" x="702" y="198" width="18" height="18" rotation="-90"/>
  <object id="215" name="super_spike" gid="182" x="702" y="216" width="18" height="18" rotation="-90"/>
  <object id="216" name="super_spike" gid="182" x="360" y="234" width="18" height="18"/>
  <object id="217" name="spike" gid="181" x="702" y="144" width="18" height="18"/>
  <object id="218" name="spike" gid="181" x="720" y="144" width="18" height="18"/>
  <object id="222" name="spike" gid="181" x="774" y="144" width="18" height="18"/>
  <object id="223" name="super_spike" gid="182" x="738" y="144" width="18" height="18"/>
  <object id="224" name="super_spike" gid="182" x="756" y="144" width="18" height="18"/>
  <object id="225" name="super_spike" gid="182" x="792" y="144" width="18" height="18"/>
 </objectgroup>
 <layer id="1" name="Ground" width="80" height="16">
  <data encoding="csv">
   <chunk x="0" y="0" width="16" height="16">
34,64,63,64,63,36,1610612823,0,0,0,50,51,51,51,51,51,
34,63,64,63,64,36,1610612822,0,0,0,0,0,0,0,0,0,
34,64,63,64,63,36,1610612838,0,0,0,0,0,0,0,0,0,
34,63,64,63,64,36,1610612838,0,0,0,0,0,0,0,0,0,
34,64,63,64,63,36,1610612838,0,0,0,2684354645,18,19,19,19,19,
34,63,64,63,64,36,1610612838,0,0,0,2684354646,34,63,64,63,64,
34,64,63,64,63,36,1610612838,0,0,0,1610612838,34,64,63,64,63,
34,63,64,63,64,36,1610612838,0,0,0,1610612838,34,63,64,63,64,
50,51,51,51,51,52,1610612822,0,0,0,1610612838,34,64,63,64,63,
160,0,0,0,0,0,1610612821,0,0,0,1610612838,34,63,64,63,64,
76,0,0,0,0,0,0,0,0,0,1610612838,34,64,63,64,63,
76,0,0,0,0,0,0,0,0,0,1610612838,34,63,64,63,64,
17,0,0,0,0,0,17,0,0,0,1610612838,34,64,63,64,63,
34,63,88,89,91,63,36,0,0,0,1610612838,34,63,64,63,64,
34,64,63,64,63,64,36,78,0,0,2684354646,34,64,63,64,63,
34,63,64,63,64,63,36,76,0,0,2684354647,50,63,64,63,64
</chunk>
   <chunk x="16" y="0" width="16" height="16">
52,0,0,0,0,0,0,0,0,0,0,2684354661,34,64,63,64,
0,0,0,0,5,6,6,6,7,0,0,2684354646,34,63,64,63,
0,0,0,0,0,0,0,0,0,0,0,2684354662,34,64,63,64,
0,0,0,0,0,0,0,0,0,0,0,2684354662,34,63,64,63,
20,1610612839,0,0,0,0,0,0,0,0,0,2684354662,34,64,63,64,
36,1610612822,0,0,5,6,6,6,7,0,0,2684354662,34,63,64,63,
36,1610612838,0,0,0,0,0,0,0,0,0,2684354662,34,64,63,64,
36,1610612838,0,0,0,0,0,0,0,0,0,2684354662,34,63,64,63,
36,1610612838,0,0,0,0,0,0,0,0,0,2684354646,34,64,63,64,
36,1610612838,0,0,5,6,6,6,7,0,0,2684354663,1073741842,1073741843,1073741843,1073741843,
36,1610612838,0,0,0,0,0,0,0,0,0,0,0,0,0,0,
36,1610612838,0,0,0,0,0,0,0,0,0,0,0,0,0,0,
36,1610612838,0,0,0,0,0,0,0,0,0,0,0,0,0,0,
36,1610612838,0,0,5,6,6,6,7,0,0,2684354661,18,19,19,19,
36,1610612822,0,0,0,0,0,0,0,0,0,2684354646,34,35,35,35,
52,1610612837,0,0,0,0,0,0,0,0,0,2684354663,34,35,35,35
</chunk>
   <chunk x="32" y="0" width="16" height="16">
36,1610612823,0,0,0,0,3221225508,64,63,64,63,64,3221225506,0,0,0,
36,1610612822,0,0,0,0,3221225508,63,64,63,64,63,3221225506,0,0,0,
36,1610612838,0,0,0,0,3221225508,64,63,64,63,64,3221225506,0,0,0,
36,1610612838,0,0,0,0,3221225508,63,64,63,64,63,3221225506,0,0,0,
36,1610612838,0,0,0,0,3221225492,3221225491,3221225491,3221225491,3221225491,3221225491,3221225490,0,0,0,
36,1610612838,0,0,0,0,3221225563,3221225561,3221225561,3221225561,3221225561,3221225561,3221225560,0,0,0,
36,1610612838,0,0,0,0,0,0,0,0,0,0,0,0,0,0,
36,1610612838,0,0,0,0,0,0,0,0,0,0,0,0,0,0,
36,1610612822,0,0,0,0,21,39,6,6,22,39,23,0,0,0,
1073741844,1610612837,0,0,0,0,0,54,0,0,0,2147483702,0,0,0,0,
0,0,0,0,0,0,0,54,0,0,0,2147483702,0,0,0,0,
0,0,0,0,0,0,0,54,0,0,0,2147483702,0,0,0,0,
0,0,0,0,0,0,0,54,232,212,232,2147483702,0,0,0,0,
20,1610612839,0,0,0,0,0,54,0,0,0,2147483702,0,0,0,0,
36,1610612822,0,0,0,0,0,54,0,0,0,2147483702,0,0,0,0,
36,1610612837,0,0,0,0,0,54,0,0,0,2147483702,0,0,0,0
</chunk>
   <chunk x="48" y="0" width="16" height="16">
93,88,89,89,89,89,89,89,91,94,0,0,0,0,0,0,
0,0,0,0,0,0,0,0,0,0,0,0,0,0,0,0,
0,0,0,0,0,0,0,0,0,0,0,0,0,0,0,0,
0,0,0,0,0,0,0,0,0,0,0,0,0,0,0,0,
2684354645,18,19,19,19,19,19,19,20,1610612823,0,0,0,0,0,0,
2684354646,34,63,64,63,64,63,64,36,1610612822,0,0,0,0,0,0,
2684354662,34,64,63,64,63,64,63,36,1610612838,0,0,0,0,0,0,
2684354662,34,63,64,63,64,63,64,36,1610612838,0,0,0,0,0,0,
2684354662,34,64,63,64,63,64,63,36,1610612838,0,0,0,0,0,0,
2684354662,34,63,64,63,64,63,64,36,1610612838,0,0,0,0,0,0,
2684354662,34,64,63,64,63,64,63,36,1610612838,0,0,0,0,0,0,
2684354662,34,63,64,63,64,63,64,36,1610612838,0,0,0,0,0,0,
2684354662,34,64,63,64,63,64,63,36,1610612838,0,0,0,0,0,0,
2684354662,34,63,64,63,64,63,64,36,1610612838,0,0,0,0,0,0,
2684354646,34,64,63,64,63,64,63,36,1610612822,0,0,0,0,0,0,
2684354647,34,63,64,63,64,63,64,36,1610612821,0,0,0,0,0,0
</chunk>
  </data>
 </layer>
 <layer id="4" name="Lava" width="80" height="16">
  <data encoding="csv">
   <chunk x="0" y="0" width="16" height="16">
0,0,0,0,0,0,0,0,0,0,0,0,0,0,0,0,
0,0,0,0,0,0,0,0,0,0,0,0,0,0,0,0,
0,0,0,0,0,0,0,0,0,0,0,0,0,0,0,0,
0,0,0,0,0,0,0,0,0,0,0,0,0,0,0,0,
0,0,0,0,0,0,0,0,0,0,0,0,0,0,0,0,
0,0,0,0,0,0,0,0,0,0,0,0,0,0,0,0,
0,0,0,0,0,0,0,0,0,0,0,0,0,0,0,0,
0,0,0,0,0,0,0,0,0,0,0,0,0,0,0,0,
0,0,0,0,0,0,0,0,0,0,0,0,0,0,0,0,
0,0,0,0,0,0,0,0,0,0,0,0,0,0,0,0,
0,0,0,0,0,0,0,0,0,0,0,0,0,0,0,0,
0,0,0,0,0,0,0,0,0,0,0,0,0,0,0,0,
0,0,0,0,0,0,0,0,0,0,0,0,0,0,0,0,
0,0,0,0,0,0,0,0,0,0,0,0,0,0,0,0,
0,0,0,0,0,0,0,0,0,0,0,0,0,0,0,0,
14,14,14,14,14,14,14,14,14,14,14,14,14,14,14,14
</chunk>
   <chunk x="16" y="0" width="16" height="16">
0,0,0,0,0,0,0,0,0,0,0,0,0,0,0,0,
0,0,0,0,0,0,0,0,0,0,0,0,0,0,0,0,
0,0,0,0,0,0,0,0,0,0,0,0,0,0,0,0,
0,0,0,0,0,0,0,0,0,0,0,0,0,0,0,0,
0,0,0,0,0,0,0,0,0,0,0,0,0,0,0,0,
0,0,0,0,0,0,0,0,0,0,0,0,0,0,0,0,
0,0,0,0,0,0,0,0,0,0,0,0,0,0,0,0,
0,0,0,0,0,0,0,0,0,0,0,0,0,0,0,0,
0,0,0,0,0,0,0,0,0,0,0,0,0,0,0,0,
0,0,0,0,0,0,0,0,0,0,0,0,0,0,0,0,
0,0,0,0,0,0,0,0,0,0,0,0,0,0,0,0,
0,0,0,0,0,0,0,0,0,0,0,0,0,0,0,0,
0,0,0,0,0,0,0,0,0,0,0,0,0,0,0,0,
0,0,0,0,0,0,0,0,0,0,0,0,0,0,0,0,
0,0,0,0,0,0,0,0,0,0,0,0,0,0,0,0,
14,14,14,14,14,14,14,14,14,14,14,14,14,14,14,14
</chunk>
   <chunk x="32" y="0" width="16" height="16">
0,0,0,0,0,0,0,0,0,0,0,0,0,0,0,0,
0,0,0,0,0,0,0,0,0,0,0,0,0,0,0,0,
0,0,0,0,0,0,0,0,0,0,0,0,0,0,0,0,
0,0,0,0,0,0,0,0,0,0,0,0,0,0,0,0,
0,0,0,0,0,0,0,0,0,0,0,0,0,0,0,0,
0,0,0,0,0,0,0,0,0,0,0,0,0,0,0,0,
0,0,0,0,0,0,0,0,0,0,0,0,0,0,0,0,
0,0,0,0,0,0,0,0,0,0,0,0,0,0,0,0,
0,0,0,0,0,0,0,0,0,0,0,0,0,0,0,0,
0,0,0,0,0,0,0,0,0,0,0,0,0,0,0,0,
0,0,0,0,0,0,0,0,0,0,0,0,0,0,0,0,
0,0,0,0,0,0,0,0,0,0,0,0,0,0,0,0,
0,0,0,0,0,0,0,0,0,0,0,0,0,0,0,0,
0,0,0,0,0,0,0,0,0,0,0,0,0,0,0,0,
0,0,0,0,0,0,0,0,0,0,0,0,0,0,0,0,
14,14,14,14,14,14,14,14,14,14,14,14,14,14,14,14
</chunk>
   <chunk x="48" y="0" width="16" height="16">
0,0,0,0,0,0,0,0,0,0,0,0,0,0,0,0,
0,0,0,0,0,0,0,0,0,0,0,0,0,0,0,0,
0,0,0,0,0,0,0,0,0,0,0,0,0,0,0,0,
0,0,0,0,0,0,0,0,0,0,0,0,0,0,0,0,
0,0,0,0,0,0,0,0,0,0,0,0,0,0,0,0,
0,0,0,0,0,0,0,0,0,0,0,0,0,0,0,0,
0,0,0,0,0,0,0,0,0,0,0,0,0,0,0,0,
0,0,0,0,0,0,0,0,0,0,0,0,0,0,0,0,
0,0,0,0,0,0,0,0,0,0,0,0,0,0,0,0,
0,0,0,0,0,0,0,0,0,0,0,0,0,0,0,0,
0,0,0,0,0,0,0,0,0,0,0,0,0,0,0,0,
0,0,0,0,0,0,0,0,0,0,0,0,0,0,0,0,
0,0,0,0,0,0,0,0,0,0,0,0,0,0,0,0,
0,0,0,0,0,0,0,0,0,0,0,0,0,0,0,0,
0,0,0,0,0,0,0,0,0,0,0,0,0,0,0,0,
14,14,14,14,14,14,14,14,14,14,14,14,14,14,14,14
</chunk>
  </data>
 </layer>
</map>
